X: 1
T:Alan McDonalds  "CYMRU"
M:C
L:1/8
Q:80
C:
S:Reel
K:HP
|: {g}eg{a}fd{g}eA{gAGAG}A2|
{g}ed{g}cd{g}eA{gAGAG}A2|
{g}eg{a}fd{g}eA{gAGAG}A2|  !
{g}B/2{d}G3/2{g}dc{g}B/2{d}G3/2{g}B/2d3/2:| |:
{g}ea{a}afgafg|
{a}e2A{gAGAG}A{g}e{g}ABd|  !
{g}ea{g}af{a}ge{g}ce|
a2f{a}ge{Gdc}d|1 cd:|
